!!!OTL: Nachtigall als Warnerin Da droben vor meines Vaters Haus,
!!!ARE: Europa, Mitteleuropa, Deutschland (BRD), Hessen, Nassau
!!!YOR: 6, S. 234
!!    ????
!!!SCT: Q0137F
!!!YEM: Copyright 1995, estate of Helmut Schaffrath.
**kern
*ICvox
*Ivox
*M4/4
*k[]
*C:
{4g
=1
4g
8g
8g
4g
4g
=2
4cc
4cc
4g}
{4g
=3
4a
4cc
4b
4dd
=4
2dd
4cc}
{4g
=5
4ee
4ee
4ee
4ee
=6
4gg
4gg
4ff}
{4dd
=7
4gg
4gg
4gg
4ff
=8
2ff
4ee}
==
!!!AGN: Ballade, Allegorie; lyrisch (?)
!!!ONB: ESAC (Essen Associative Code) Database: BALLADE
!!!AMT: simple quadruple
!!!AIN: vox
!!!EED: Helmut Schaffrath
!!!EEV: 1.0
*-
